; generated by SuperSlicer 2.5.60.0 on 2025-09-05 at 13:52:14 UTC

; 

; external perimeters extrusion width = 0.44mm
; perimeters extrusion width = 0.44mm
; infill extrusion width = 0.44mm
; solid infill extrusion width = 0.44mm
; top infill extrusion width = 0.44mm
; first layer extrusion width = 0.44mm

; object:{"name":"spacer","id":"spacer.stl id:0 copy 0","object_center":[110.000000,110.000000,0.000000],"boundingbox_center":[110.000000,110.000000,1.500000],"boundingbox_size":[70.000000,12.000000,3.000000]}
EXCLUDE_OBJECT_DEFINE NAME=spacer_stl_id_0_copy_0 CENTER=110.000000,110.000000 POLYGON=[[75.00,104.00],[145.00,104.00],[145.00,116.00],[75.00,116.00],[75.00,104.00]]
; Total objects to print: 1
; plater:{"center":[110.000000,110.000000,0.000000],"boundingbox_center":[110.000000,110.000000,1.500000],"boundingbox_size":[70.000000,12.000000,3.000000]}

M107
;TYPE:Custom
M140 S90 ; set bed temp
M104 S245 ; set extruder temp
G28 ; home all axes
G1 Z5 F5000 ; lift nozzle
G1 X0 Y0 F3000 ; move to X0, Y0
M190 S90 ; wait for bed temp
M109 S245 ; wait for extruder temp
G21 ; set units to millimeters
G90 ; use absolute coordinates
M82 ; use absolute distances for extrusion
G92 E0
; Filament gcode
;LAYER_CHANGE
;Z:0.28
;HEIGHT:0.28
G1 Z0.28 F12000
G1 E-2 F2400
G1 X67.678 Y92.982 F12000
G1 E0 F2400
;TYPE:Skirt
;WIDTH:0.4
G1 X65.215 Y95.097 E0.12848
G1 X63.341 Y97.749 E0.25697
G1 X62.169 Y100.777 E0.38545
G1 X61.771 Y104 E0.51393
G1 X61.771 Y116 E0.98877
G1 X62.53 Y120.418 E1.16612
G1 X63.982 Y123.322 E1.29461
G1 X66.097 Y125.785 E1.42309
G1 X68.749 Y127.659 E1.55158
G1 X71.777 Y128.831 E1.68006
G1 X75 Y129.229 E1.80854
G1 X145 Y129.229 E4.57839
G1 X149.418 Y128.47 E4.75575
G1 X152.322 Y127.018 E4.88423
G1 X154.785 Y124.903 E5.01272
G1 X156.659 Y122.251 E5.1412
G1 X157.831 Y119.223 E5.26969
G1 X158.229 Y116 E5.39817
G1 X158.229 Y104 E5.87299
G1 X157.47 Y99.582 E6.05036
G1 X156.018 Y96.678 E6.17885
G1 X153.903 Y94.215 E6.30732
G1 X151.251 Y92.341 E6.43581
G1 X148.223 Y91.169 E6.5643
G1 X145 Y90.771 E6.69277
G1 X75 Y90.771 E9.46263
G1 X70.582 Y91.53 E9.63998
G1 X67.732 Y92.955 E9.7661
G1 X68.005 Y93.174 F12000
G1 F2400
G1 X65.551 Y95.234 E9.89291
G1 X63.68 Y97.837 E10.01972
G1 X62.509 Y100.82 E10.14655
G1 X62.111 Y104 E10.27335
G1 X62.111 Y116 E10.74819
G1 X62.783 Y120.107 E10.91288
G1 X64.174 Y122.995 E11.03969
G1 X66.234 Y125.449 E11.1665
G1 X68.837 Y127.32 E11.29333
G1 X71.82 Y128.491 E11.42013
G1 X75 Y128.889 E11.54696
G1 X145 Y128.889 E14.3168
G1 X149.107 Y128.217 E14.48148
G1 X151.995 Y126.826 E14.60831
G1 X154.449 Y124.766 E14.73512
G1 X156.32 Y122.163 E14.86193
G1 X157.491 Y119.18 E14.98875
G1 X157.889 Y116 E15.11557
G1 X157.889 Y104 E15.59039
G1 X157.217 Y99.893 E15.75509
G1 X155.826 Y97.005 E15.8819
G1 X153.766 Y94.551 E16.00871
G1 X151.163 Y92.68 E16.13553
G1 X148.18 Y91.509 E16.26235
G1 X145 Y91.111 E16.38916
G1 X75 Y91.111 E19.15901
G1 X70.893 Y91.783 E19.3237
G1 X68.059 Y93.148 E19.44813
G1 X68.332 Y93.369 F12000
G1 F2400
G1 X65.886 Y95.373 E19.57327
G1 X64.019 Y97.925 E19.69839
G1 X62.849 Y100.863 E19.82351
G1 X62.451 Y104 E19.94864
G1 X62.451 Y116 E20.42347
G1 X63.039 Y119.799 E20.57559
G1 X64.369 Y122.668 E20.7007
G1 X66.373 Y125.114 E20.82584
G1 X68.925 Y126.981 E20.95095
G1 X71.863 Y128.151 E21.07609
G1 X75 Y128.549 E21.20121
G1 X145 Y128.549 E23.97106
G1 X148.799 Y127.961 E24.12316
G1 X151.668 Y126.631 E24.2483
G1 X154.114 Y124.627 E24.37342
G1 X155.981 Y122.075 E24.49854
G1 X157.151 Y119.137 E24.62367
G1 X157.549 Y116 E24.7488
G1 X157.549 Y104 E25.22363
G1 X156.961 Y100.201 E25.37573
G1 X155.631 Y97.332 E25.50087
G1 X153.627 Y94.886 E25.62598
G1 X151.075 Y93.019 E25.75112
G1 X148.137 Y91.849 E25.87624
G1 X145 Y91.451 E26.00136
G1 X75 Y91.451 E28.77122
G1 X71.201 Y92.039 E28.92332
G1 X68.386 Y93.344 E29.04608
G1 X68.658 Y93.567 F12000
G1 F2400
G1 X66.222 Y95.514 E29.16948
G1 X64.358 Y98.015 E29.2929
G1 X63.189 Y100.907 E29.41632
G1 X62.791 Y104 E29.53972
G1 X62.791 Y116 E30.01456
G1 X63.301 Y119.492 E30.15419
G1 X64.567 Y122.342 E30.2776
G1 X66.514 Y124.778 E30.40102
G1 X69.015 Y126.642 E30.52443
G1 X71.907 Y127.811 E30.64784
G1 X75 Y128.209 E30.77126
G1 X145 Y128.209 E33.5411
G1 X148.492 Y127.699 E33.68074
G1 X151.342 Y126.433 E33.80415
G1 X153.778 Y124.486 E33.92756
G1 X155.642 Y121.985 E34.05098
G1 X156.811 Y119.093 E34.17439
G1 X157.209 Y116 E34.2978
G1 X157.209 Y104 E34.77263
G1 X156.699 Y100.508 E34.91227
G1 X155.433 Y97.658 E35.03568
G1 X153.486 Y95.222 E35.15909
G1 X150.985 Y93.358 E35.28251
G1 X148.093 Y92.189 E35.40592
G1 X145 Y91.791 E35.52933
G1 X75 Y91.791 E38.29918
G1 X71.508 Y92.301 E38.43881
G1 X68.713 Y93.543 E38.55985
G1 X68.983 Y93.769 F12000
G1 F2400
G1 X66.557 Y95.658 E38.68153
G1 X64.697 Y98.106 E38.80321
G1 X63.529 Y100.951 E38.92488
G1 X63.13 Y104 E39.04655
G1 X63.13 Y116 E39.52138
G1 X63.566 Y119.187 E39.64866
G1 X64.769 Y122.017 E39.77033
G1 X66.658 Y124.443 E39.892
G1 X69.106 Y126.303 E40.01368
G1 X71.951 Y127.471 E40.13536
G1 X75 Y127.87 E40.25703
G1 X145 Y127.87 E43.02688
G1 X148.187 Y127.434 E43.15414
G1 X151.017 Y126.231 E43.27582
G1 X153.443 Y124.342 E43.3975
G1 X155.303 Y121.894 E43.51918
G1 X156.471 Y119.049 E43.64084
G1 X156.87 Y116 E43.76253
G1 X156.87 Y104 E44.23735
G1 X156.434 Y100.813 E44.36463
G1 X155.231 Y97.983 E44.48629
G1 X153.342 Y95.557 E44.60798
G1 X150.894 Y93.697 E44.72965
G1 X148.049 Y92.529 E44.85132
G1 X145 Y92.13 E44.973
G1 X75 Y92.13 E47.74285
G1 X71.813 Y92.566 E47.87012
G1 X69.038 Y93.745 E47.98941
G1 X69.307 Y93.974 F12000
G1 F2400
G1 X66.892 Y95.803 E48.10933
G1 X65.036 Y98.199 E48.22925
G1 X63.869 Y100.996 E48.34915
G1 X63.47 Y104 E48.46907
G1 X63.47 Y116 E48.9439
G1 X63.837 Y118.883 E49.05892
G1 X64.974 Y121.693 E49.17883
G1 X66.803 Y124.108 E49.29874
G1 X69.199 Y125.964 E49.41865
G1 X71.996 Y127.131 E49.53856
G1 X75 Y127.53 E49.65848
G1 X145 Y127.53 E52.42833
G1 X147.883 Y127.163 E52.54334
G1 X150.693 Y126.026 E52.66326
G1 X153.108 Y124.197 E52.78316
G1 X154.964 Y121.801 E52.90308
G1 X156.131 Y119.004 E53.023
G1 X156.53 Y116 E53.1429
G1 X156.53 Y104 E53.61774
G1 X156.163 Y101.117 E53.73275
G1 X155.026 Y98.307 E53.85266
G1 X153.197 Y95.892 E53.97258
G1 X150.801 Y94.036 E54.09249
G1 X148.004 Y92.869 E54.2124
G1 X145 Y92.47 E54.33232
G1 X75 Y92.47 E57.10216
G1 X72.117 Y92.837 E57.21718
G1 X69.363 Y93.951 E57.33472
G1 X69.631 Y94.183 F12000
G1 F2400
G1 X67.226 Y95.952 E57.45284
G1 X65.375 Y98.293 E57.57096
G1 X64.209 Y101.041 E57.68909
G1 X63.81 Y104 E57.80722
G1 X63.81 Y116 E58.28204
G1 X64.112 Y118.582 E58.38492
G1 X65.183 Y121.369 E58.50305
G1 X66.952 Y123.774 E58.62117
G1 X69.293 Y125.625 E58.73929
G1 X72.041 Y126.791 E58.85742
G1 X75 Y127.19 E58.97555
G1 X145 Y127.19 E61.74539
G1 X147.582 Y126.888 E61.84827
G1 X150.369 Y125.817 E61.96639
G1 X152.774 Y124.048 E62.08452
G1 X154.625 Y121.707 E62.20264
G1 X155.791 Y118.959 E62.32077
G1 X156.19 Y116 E62.43889
G1 X156.19 Y104 E62.91372
G1 X155.888 Y101.418 E63.0166
G1 X154.817 Y98.631 E63.13473
G1 X153.048 Y96.226 E63.25284
G1 X150.707 Y94.375 E63.37098
G1 X147.959 Y93.209 E63.48909
G1 X145 Y92.81 E63.60723
G1 X75 Y92.81 E66.37706
G1 X72.418 Y93.112 E66.47995
G1 X69.687 Y94.161 E66.5957
G1 X69.953 Y94.395 F12000
G1 F2400
G1 X67.56 Y96.102 E66.712
G1 X65.714 Y98.389 E66.82832
G1 X64.548 Y101.088 E66.94462
G1 X64.15 Y104 E67.06093
G1 X64.15 Y116 E67.53576
G1 X64.393 Y118.283 E67.62662
G1 X65.395 Y121.047 E67.74294
G1 X67.102 Y123.44 E67.85924
G1 X69.389 Y125.286 E67.97555
G1 X72.088 Y126.452 E68.09186
G1 X75 Y126.85 E68.20817
G1 X145 Y126.85 E70.97802
G1 X147.283 Y126.607 E71.06888
G1 X150.047 Y125.605 E71.18519
G1 X152.44 Y123.898 E71.30149
G1 X154.286 Y121.611 E71.41781
G1 X155.452 Y118.912 E71.53411
G1 X155.85 Y116 E71.65043
G1 X155.85 Y104 E72.12525
G1 X155.607 Y101.717 E72.21612
G1 X154.605 Y98.953 E72.33243
G1 X152.898 Y96.56 E72.44873
G1 X150.611 Y94.714 E72.56505
G1 X147.912 Y93.548 E72.68135
G1 X145 Y93.15 E72.79766
G1 X75 Y93.15 E75.56751
G1 X72.717 Y93.393 E75.65837
G1 X70.01 Y94.375 E75.77231
G1 X70.275 Y94.612 F12000
G1 F2400
G1 X67.894 Y96.256 E75.88677
G1 X66.052 Y98.487 E76.00123
G1 X64.888 Y101.135 E76.1157
G1 X64.49 Y104 E76.23016
G1 X64.49 Y116 E76.705
G1 X64.68 Y117.987 E76.78397
G1 X65.612 Y120.725 E76.89844
G1 X67.256 Y123.106 E77.01291
G1 X69.487 Y124.948 E77.12737
G1 X72.135 Y126.112 E77.24183
G1 X75 Y126.51 E77.35629
G1 X145 Y126.51 E80.12614
G1 X146.987 Y126.32 E80.20513
G1 X149.725 Y125.388 E80.31959
G1 X152.106 Y123.744 E80.43406
G1 X153.948 Y121.513 E80.54851
G1 X155.112 Y118.865 E80.66299
G1 X155.51 Y116 E80.77744
G1 X155.51 Y104 E81.25227
G1 X155.32 Y102.013 E81.33127
G1 X154.388 Y99.275 E81.44572
G1 X152.744 Y96.894 E81.56019
G1 X150.513 Y95.052 E81.67465
G1 X147.865 Y93.888 E81.78911
G1 X145 Y93.49 E81.90358
G1 X75 Y93.49 E84.67342
G1 X73.013 Y93.68 E84.75242
G1 X70.331 Y94.593 E84.8645
G1 X70.595 Y94.834 F12000
G1 F2400
G1 X68.228 Y96.413 E84.97708
G1 X66.391 Y98.586 E85.08968
G1 X65.228 Y101.183 E85.20226
G1 X64.83 Y104 E85.31486
G1 X64.83 Y116 E85.78968
G1 X64.972 Y117.693 E85.85693
G1 X65.834 Y120.405 E85.96951
G1 X67.413 Y122.772 E86.08211
G1 X69.586 Y124.609 E86.19469
G1 X72.183 Y125.772 E86.30728
G1 X75 Y126.17 E86.41987
G1 X145 Y126.17 E89.18972
G1 X146.693 Y126.028 E89.25696
G1 X149.405 Y125.166 E89.36955
G1 X151.772 Y123.587 E89.48214
G1 X153.609 Y121.414 E89.59472
G1 X154.772 Y118.817 E89.70732
G1 X155.17 Y116 E89.8199
G1 X155.17 Y104 E90.29473
G1 X155.028 Y102.307 E90.36198
G1 X154.166 Y99.595 E90.47457
G1 X152.587 Y97.228 E90.58715
G1 X150.414 Y95.391 E90.69974
G1 X147.817 Y94.228 E90.81233
G1 X145 Y93.83 E90.92492
G1 X75 Y93.83 E93.69477
G1 X73.307 Y93.972 E93.76201
G1 X70.652 Y94.815 E93.87222
G92 E0
G1 E-2
; printing object spacer.stl id:0 copy 0
EXCLUDE_OBJECT_START NAME=spacer_stl_id_0_copy_0
G1 X81.771 Y107.639 F12000
G1 E0 F2400
;TYPE:Internal perimeter
;WIDTH:0.44
G1 X81.469 Y108.768 E0.05166
G1 X81.377 Y109.461 E0.08258
G1 X81.359 Y110.29 E0.11926
G1 X81.45 Y111.115 E0.15596
G1 X81.601 Y111.797 E0.18686
G1 X81.806 Y112.361 E0.2134
G1 X78.639 Y112.361 E0.35346
G1 X78.639 Y107.639 E0.56228
G1 X81.711 Y107.639 E0.69813
G92 E0
G1 E-2
G1 X82.336 Y112.706 F12000
G1 E0 F2400
G1 X82.349 Y112.741 E0.00164
G1 X78.259 Y112.741 E0.18249
G1 X78.259 Y107.259 E0.42492
G1 X82.384 Y107.259 E0.60734
G1 X82.106 Y107.855 E0.63642
G1 X81.842 Y108.842 E0.68159
G1 X81.757 Y109.49 E0.71049
G1 X81.74 Y110.273 E0.74517
G1 X81.825 Y111.053 E0.77983
G1 X81.966 Y111.69 E0.80873
G1 X82.316 Y112.65 E0.85386
G1 X82.859 Y112.85 F12000
G1 F2400
G1 X82.999 Y113.121 E0.86735
G1 X77.879 Y113.121 E1.09379
G1 X77.879 Y106.879 E1.36981
G1 X82.981 Y106.879 E1.59541
G1 X82.465 Y107.985 E1.64939
G1 X82.215 Y108.916 E1.69199
G1 X82.136 Y109.519 E1.71888
G1 X82.12 Y110.257 E1.75153
G1 X82.2 Y110.991 E1.78418
G1 X82.332 Y111.584 E1.81105
G1 X82.64 Y112.43 E1.85088
G1 X82.831 Y112.797 E1.86917
G1 X83.312 Y112.871 F12000
G1 F2400
G1 X83.733 Y113.501 E1.90267
G1 X77.499 Y113.501 E2.17834
G1 X77.499 Y106.499 E2.48796
G1 X83.733 Y106.499 E2.76363
G1 X83.217 Y107.27 E2.80463
G1 X82.823 Y108.116 E2.84588
G1 X82.589 Y108.99 E2.88593
G1 X82.516 Y109.548 E2.91079
G1 X82.5 Y110.24 E2.94142
G1 X82.576 Y110.929 E2.97205
G1 X82.697 Y111.477 E2.99691
G1 X82.988 Y112.277 E3.03453
G1 X83.248 Y112.775 E3.05939
G1 X83.278 Y112.821 E3.0618
G1 X83.628 Y112.661 F12000
G1 F2400
G1 X83.948 Y113.139 E3.08722
G1 X84.627 Y113.88 E3.13172
G1 X77.12 Y113.88 E3.46375
G1 X77.12 Y106.12 E3.80699
G1 X84.674 Y106.12 E4.14108
G1 X84.254 Y106.504 E4.16627
G1 X83.922 Y106.9 E4.1891
G1 X83.55 Y107.457 E4.21875
G1 X83.182 Y108.246 E4.25725
G1 X82.962 Y109.065 E4.29472
G1 X82.895 Y109.577 E4.31756
G1 X82.881 Y110.224 E4.34617
G1 X82.951 Y110.867 E4.37479
G1 X83.063 Y111.371 E4.39763
G1 X83.337 Y112.123 E4.43304
G1 X83.575 Y112.581 E4.45588
G1 X83.595 Y112.611 E4.45746
G1 X83.945 Y112.451 F12000
G1 F2400
G1 X84.247 Y112.903 E4.48151
G1 X84.793 Y113.499 E4.51726
G1 X85.42 Y113.98 E4.55216
G1 X85.515 Y114.035 E4.55705
G1 X85.455 Y114.26 E4.56737
G1 X76.74 Y114.26 E4.95282
G1 X76.74 Y105.74 E5.32964
G1 X85.456 Y105.74 E5.71512
G1 X85.523 Y105.952 E5.72497
G1 X85.083 Y106.26 E5.74873
G1 X84.529 Y106.768 E5.78194
G1 X84.226 Y107.128 E5.80277
G1 X83.882 Y107.644 E5.8302
G1 X83.54 Y108.377 E5.86594
G1 X83.336 Y109.139 E5.90085
G1 X83.274 Y109.606 E5.92166
G1 X83.261 Y110.207 E5.94827
G1 X83.327 Y110.805 E5.97486
G1 X83.428 Y111.264 E5.99568
G1 X83.685 Y111.97 E6.02889
G1 X83.912 Y112.401 E6.05044
G1 X84.262 Y112.241 F12000
G1 F2400
G1 X84.547 Y112.668 E6.07314
G1 X85.051 Y113.218 E6.10612
G1 X85.631 Y113.663 E6.13845
G1 X85.999 Y113.876 E6.15726
G1 X86.494 Y114.094 E6.18117
G1 X86.885 Y114.217 E6.19932
G1 X87.445 Y114.328 E6.22456
G1 X87.783 Y114.343 E6.2395
G1 X87.776 Y114.64 E6.25265
G1 X76.36 Y114.64 E6.75757
G1 X76.36 Y105.36 E7.168
G1 X87.756 Y105.36 E7.67203
G1 X87.775 Y105.644 E7.68462
G1 X87.085 Y105.735 E7.7154
G1 X86.674 Y105.845 E7.73421
G1 X86.156 Y106.046 E7.75879
G1 X85.669 Y106.313 E7.78336
G1 X85.321 Y106.557 E7.80217
G1 X84.804 Y107.031 E7.83318
G1 X84.531 Y107.357 E7.85197
G1 X84.214 Y107.831 E7.87721
G1 X83.898 Y108.507 E7.9102
G1 X83.709 Y109.213 E7.94254
G1 X83.654 Y109.635 E7.96133
G1 X83.642 Y110.19 E7.98591
G1 X83.702 Y110.743 E8.01049
G1 X83.794 Y111.158 E8.02929
G1 X84.034 Y111.817 E8.0603
G1 X84.229 Y112.191 E8.07898
G1 X84.579 Y112.032 F12000
G1 F2400
G1 X84.847 Y112.433 E8.10033
G1 X85.309 Y112.937 E8.13056
G1 X85.843 Y113.347 E8.16032
G1 X86.171 Y113.536 E8.1771
G1 X86.628 Y113.737 E8.19919
G1 X86.98 Y113.848 E8.21549
G1 X87.491 Y113.95 E8.23853
G1 X88.152 Y113.979 E8.26781
G1 X88.53 Y113.946 E8.28459
G1 X89.041 Y113.844 E8.30763
G1 X89.673 Y113.614 E8.33739
G1 X90.13 Y113.363 E8.36042
G1 X90.441 Y113.146 E8.3772
G1 X90.921 Y112.706 E8.40601
G1 X91.165 Y112.415 E8.42279
G1 X91.454 Y111.982 E8.44583
G1 X91.743 Y111.362 E8.47606
G1 X91.917 Y110.713 E8.50582
G1 X91.967 Y110.336 E8.5226
G1 X91.978 Y109.826 E8.54516
G1 X91.923 Y109.319 E8.56772
G1 X91.84 Y108.949 E8.58451
G1 X91.618 Y108.337 E8.61331
G1 X91.442 Y108 E8.63009
G1 X91.153 Y107.567 E8.65312
G1 X90.691 Y107.063 E8.68336
G1 X90.157 Y106.653 E8.71312
G1 X89.829 Y106.464 E8.7299
G1 X89.372 Y106.263 E8.75198
G1 X89.02 Y106.152 E8.7683
G1 X88.509 Y106.05 E8.79132
G1 X87.826 Y106.02 E8.82157
G1 X87.159 Y106.108 E8.85131
G1 X86.793 Y106.206 E8.86811
G1 X86.317 Y106.391 E8.89066
G1 X85.87 Y106.637 E8.91322
G1 X85.559 Y106.854 E8.93
G1 X85.079 Y107.294 E8.95881
G1 X84.835 Y107.585 E8.9756
G1 X84.546 Y108.018 E8.99862
G1 X84.257 Y108.638 E9.02886
G1 X84.083 Y109.287 E9.05862
G1 X84.033 Y109.664 E9.0754
G1 X84.022 Y110.174 E9.09796
G1 X84.077 Y110.681 E9.12052
G1 X84.16 Y111.051 E9.13731
G1 X84.382 Y111.663 E9.16611
G1 X84.547 Y111.981 E9.18193
G1 X84.896 Y111.822 F12000
G1 F2400
G1 X85.147 Y112.198 E9.20192
G1 X85.566 Y112.656 E9.22939
G1 X86.054 Y113.03 E9.25658
G1 X86.343 Y113.197 E9.27135
G1 X86.762 Y113.381 E9.29159
G1 X87.074 Y113.48 E9.30607
G1 X87.536 Y113.572 E9.3269
G1 X88.144 Y113.598 E9.3538
G1 X88.476 Y113.569 E9.36855
G1 X88.939 Y113.477 E9.3894
G1 X89.516 Y113.267 E9.41658
G1 X89.929 Y113.04 E9.43741
G1 X90.203 Y112.849 E9.45217
G1 X90.646 Y112.442 E9.47878
G1 X90.861 Y112.187 E9.49354
G1 X91.122 Y111.795 E9.51438
G1 X91.385 Y111.232 E9.54185
G1 X91.544 Y110.638 E9.56904
G1 X91.588 Y110.307 E9.5838
G1 X91.598 Y109.843 E9.60435
G1 X91.547 Y109.381 E9.62489
G1 X91.475 Y109.055 E9.63965
G1 X91.269 Y108.49 E9.66625
G1 X91.115 Y108.194 E9.68102
G1 X90.853 Y107.802 E9.70185
G1 X90.434 Y107.344 E9.72932
G1 X89.946 Y106.97 E9.75652
G1 X89.657 Y106.803 E9.77128
G1 X89.238 Y106.619 E9.79152
G1 X88.926 Y106.52 E9.80601
G1 X88.464 Y106.428 E9.82683
G1 X87.843 Y106.401 E9.85431
G1 X87.233 Y106.481 E9.8815
G1 X86.911 Y106.568 E9.89626
G1 X86.478 Y106.736 E9.9168
G1 X86.071 Y106.96 E9.93735
G1 X85.797 Y107.151 E9.95211
G1 X85.354 Y107.558 E9.97871
G1 X85.139 Y107.813 E9.99348
G1 X84.878 Y108.205 E10.01431
G1 X84.615 Y108.768 E10.04178
G1 X84.456 Y109.362 E10.06898
G1 X84.412 Y109.693 E10.08373
G1 X84.402 Y110.157 E10.10428
