; generated by SuperSlicer 2.5.60.0 on 2025-09-05 at 14:39:05 UTC

; 

; external perimeters extrusion width = 0.44mm
; perimeters extrusion width = 0.44mm
; infill extrusion width = 0.44mm
; solid infill extrusion width = 0.44mm
; top infill extrusion width = 0.44mm
; first layer extrusion width = 0.44mm

; object:{"name":"spacer2","id":"spacer2.stl id:0 copy 0","object_center":[110.000000,110.000000,0.000000],"boundingbox_center":[110.000000,110.000000,2.000000],"boundingbox_size":[54.310879,12.000000,4.000000]}
EXCLUDE_OBJECT_DEFINE NAME=spacer2_stl_id_0_copy_0 CENTER=110.000000,110.000000 POLYGON=[[82.84,104.00],[137.16,104.00],[137.16,116.00],[82.84,116.00],[82.84,104.00]]
; Total objects to print: 1
; plater:{"center":[110.000000,110.000000,0.000000],"boundingbox_center":[110.000000,110.000000,2.000000],"boundingbox_size":[54.310879,12.000000,4.000000]}

M107
;TYPE:Custom
M140 S90 ; set bed temp
M104 S245 ; set extruder temp
G28 ; home all axes
G1 Z5 F5000 ; lift nozzle
G1 X0 Y0 F3000 ; move to X0, Y0
M190 S90 ; wait for bed temp
M109 S245 ; wait for extruder temp
G21 ; set units to millimeters
G90 ; use absolute coordinates
M82 ; use absolute distances for extrusion
G92 E0
; Filament gcode
;LAYER_CHANGE
;Z:0.28
;HEIGHT:0.28
G1 Z0.28 F12000
G1 E-2 F2400
G1 X75.739 Y96.256 F12000
G1 E0 F2400
;TYPE:Skirt
;WIDTH:0.4
G1 X73.897 Y98.487 E0.11446
G1 X72.733 Y101.135 E0.22893
G1 X72.335 Y104 E0.34339
G1 X72.335 Y116 E0.81822
G1 X72.524 Y117.987 E0.89721
G1 X73.457 Y120.725 E1.01167
G1 X75.101 Y123.106 E1.12613
G1 X77.331 Y124.948 E1.2406
G1 X79.979 Y126.112 E1.35506
G1 X82.845 Y126.51 E1.46952
G1 X137.155 Y126.51 E3.61856
G1 X139.143 Y126.32 E3.69755
G1 X141.881 Y125.388 E3.81202
G1 X144.261 Y123.744 E3.92647
G1 X146.103 Y121.513 E4.04094
G1 X147.267 Y118.865 E4.1554
G1 X147.665 Y116 E4.26987
G1 X147.665 Y104 E4.7447
G1 X147.476 Y102.013 E4.82368
G1 X146.543 Y99.275 E4.93815
G1 X144.899 Y96.894 E5.0526
G1 X142.669 Y95.052 E5.16708
G1 X140.021 Y93.888 E5.28153
G1 X137.155 Y93.49 E5.396
G1 X82.845 Y93.49 E7.54504
G1 X80.857 Y93.68 E7.62403
G1 X78.119 Y94.612 E7.73849
G1 X75.788 Y96.222 E7.85058
G1 X76.072 Y96.413 F12000
G1 F2400
G1 X74.236 Y98.586 E7.96316
G1 X73.073 Y101.183 E8.07576
G1 X72.675 Y104 E8.18834
G1 X72.675 Y116 E8.66317
G1 X72.817 Y117.693 E8.73042
G1 X73.678 Y120.405 E8.84301
G1 X75.257 Y122.772 E8.95559
G1 X77.43 Y124.609 E9.06819
G1 X80.027 Y125.772 E9.18077
G1 X82.845 Y126.17 E9.29335
G1 X137.155 Y126.17 E11.4424
G1 X138.849 Y126.028 E11.50965
G1 X141.561 Y125.166 E11.62223
G1 X143.928 Y123.587 E11.73482
G1 X145.764 Y121.414 E11.84741
G1 X146.927 Y118.817 E11.96
G1 X147.325 Y116 E12.07259
G1 X147.325 Y104 E12.54741
G1 X147.183 Y102.307 E12.61466
G1 X146.322 Y99.595 E12.72725
G1 X144.743 Y97.228 E12.83984
G1 X142.57 Y95.391 E12.95243
G1 X139.973 Y94.228 E13.06501
G1 X137.155 Y93.83 E13.1776
G1 X82.845 Y93.83 E15.32664
G1 X81.151 Y93.972 E15.39389
G1 X78.439 Y94.834 E15.50648
G1 X76.122 Y96.379 E15.61669
G92 E0
G1 E-2
; printing object spacer2.stl id:0 copy 0
EXCLUDE_OBJECT_START NAME=spacer2_stl_id_0_copy_0
G1 X90.825 Y106.879 F12000
G1 E0 F2400
;TYPE:Internal perimeter
;WIDTH:0.44
G1 X90.322 Y107.958 E0.05263
G1 X90.107 Y108.696 E0.08663
G1 X90.002 Y109.294 E0.1135
G1 X89.96 Y110.257 E0.15611
G1 X90.09 Y111.244 E0.20011
G1 X90.305 Y111.983 E0.23417
G1 X90.514 Y112.486 E0.25826
G1 X90.844 Y113.121 E0.2899
G1 X85.724 Y113.121 E0.51634
G1 X85.724 Y106.879 E0.79236
G1 X90.765 Y106.879 E1.01532
G1 X91.577 Y106.499 F12000
G1 F2400
G1 X91.062 Y107.271 E1.05632
G1 X90.679 Y108.092 E1.09642
G1 X90.478 Y108.782 E1.12821
G1 X90.38 Y109.336 E1.15306
G1 X90.341 Y110.24 E1.1931
G1 X90.463 Y111.165 E1.23436
G1 X90.664 Y111.857 E1.26621
G1 X90.858 Y112.325 E1.28864
G1 X91.092 Y112.775 E1.31107
G1 X91.577 Y113.501 E1.34966
G1 X85.344 Y113.501 E1.62533
G1 X85.344 Y106.499 E1.93494
G1 X91.517 Y106.499 E2.20796
G1 X92.504 Y106.12 F12000
G1 F2400
G1 X92.083 Y106.522 E2.23372
G1 X91.766 Y106.9 E2.25551
G1 X91.394 Y107.457 E2.28517
G1 X91.036 Y108.226 E2.32268
G1 X90.848 Y108.869 E2.35228
G1 X90.759 Y109.377 E2.3751
G1 X90.722 Y110.224 E2.41258
G1 X90.835 Y111.087 E2.45108
G1 X91.023 Y111.73 E2.48072
G1 X91.203 Y112.164 E2.50151
G1 X91.42 Y112.581 E2.52229
G1 X91.793 Y113.139 E2.55196
G1 X92.473 Y113.88 E2.59644
G1 X84.964 Y113.88 E2.92852
G1 X84.964 Y106.12 E3.27174
G1 X92.444 Y106.12 E3.60254
G1 X93.378 Y105.965 F12000
G1 F2400
G1 X93.152 Y106.095 E3.61407
G1 X92.779 Y106.382 E3.63487
G1 X92.361 Y106.783 E3.66048
G1 X92.071 Y107.128 E3.68043
G1 X91.726 Y107.644 E3.70789
G1 X91.392 Y108.361 E3.74283
G1 X91.219 Y108.955 E3.77022
G1 X91.137 Y109.419 E3.79104
G1 X91.103 Y110.207 E3.82594
G1 X91.208 Y111.008 E3.86168
G1 X91.382 Y111.604 E3.88912
G1 X91.547 Y112.004 E3.90826
G1 X91.747 Y112.388 E3.92739
G1 X92.092 Y112.904 E3.95485
G1 X92.641 Y113.502 E3.99074
G1 X93.362 Y114.054 E4.0309
G1 X93.292 Y114.26 E4.04054
G1 X84.584 Y114.26 E4.42563
G1 X84.584 Y105.74 E4.80247
G1 X93.317 Y105.74 E5.18869
G1 X93.362 Y105.907 E5.19634
G92 E0
G1 E-2
G1 X95.618 Y105.644 F12000
G1 E0 F2400
G1 X94.925 Y105.736 E0.03092
G1 X94.515 Y105.846 E0.04971
G1 X93.983 Y106.053 E0.07495
G1 X93.364 Y106.412 E0.10662
G1 X93.027 Y106.671 E0.12539
G1 X92.639 Y107.043 E0.14918
G1 X92.375 Y107.357 E0.1673
G1 X92.058 Y107.831 E0.19255
G1 X91.749 Y108.495 E0.22493
G1 X91.589 Y109.042 E0.25011
G1 X91.516 Y109.46 E0.26891
G1 X91.484 Y110.19 E0.30124
G1 X91.581 Y110.93 E0.33423
G1 X91.741 Y111.478 E0.35947
G1 X91.892 Y111.843 E0.37695
G1 X92.075 Y112.194 E0.39443
G1 X92.392 Y112.668 E0.41969
G1 X92.898 Y113.221 E0.45281
G1 X93.479 Y113.665 E0.48517
G1 X93.847 Y113.878 E0.50397
G1 X94.37 Y114.107 E0.5292
G1 X95.062 Y114.292 E0.56089
G1 X95.555 Y114.356 E0.58288
G1 X95.537 Y114.64 E0.59548
G1 X84.204 Y114.64 E1.09667
G1 X84.204 Y105.36 E1.5071
G1 X95.6 Y105.36 E2.01108
G1 X95.614 Y105.584 E2.021
G1 X96.139 Y106.032 F12000
G1 F2400
G1 X95.656 Y106.022 E2.04234
G1 X95 Y106.109 E2.07163
G1 X94.634 Y106.207 E2.0884
G1 X94.148 Y106.397 E2.11144
G1 X93.575 Y106.728 E2.14072
G1 X93.275 Y106.959 E2.15748
G1 X92.916 Y107.303 E2.17944
G1 X92.68 Y107.585 E2.19573
G1 X92.39 Y108.018 E2.21877
G1 X92.105 Y108.629 E2.24858
G1 X91.96 Y109.128 E2.27156
G1 X91.894 Y109.502 E2.28835
G1 X91.865 Y110.174 E2.3181
G1 X91.954 Y110.852 E2.34833
G1 X92.1 Y111.352 E2.37137
G1 X92.237 Y111.682 E2.3872
G1 X92.402 Y112 E2.40304
G1 X92.692 Y112.433 E2.42608
G1 X93.156 Y112.939 E2.45645
G1 X93.69 Y113.349 E2.48622
G1 X94.019 Y113.538 E2.50301
G1 X94.496 Y113.747 E2.52604
G1 X95.136 Y113.918 E2.55533
G1 X95.512 Y113.967 E2.57211
G1 X96.033 Y113.978 E2.59515
G1 X96.689 Y113.891 E2.62443
G1 X97.055 Y113.793 E2.6412
G1 X97.541 Y113.603 E2.66424
G1 X98.114 Y113.272 E2.69352
G1 X98.414 Y113.041 E2.71028
G1 X98.78 Y112.69 E2.73271
G1 X99.1 Y112.292 E2.75526
G1 X99.304 Y111.972 E2.77205
G1 X99.584 Y111.371 E2.80137
G1 X99.729 Y110.872 E2.82437
G1 X99.795 Y110.498 E2.84114
G1 X99.824 Y109.826 E2.8709
G1 X99.735 Y109.148 E2.90113
G1 X99.589 Y108.648 E2.92417
G1 X99.448 Y108.308 E2.94048
G1 X99.208 Y107.87 E2.96256
G1 X98.99 Y107.559 E2.97935
G1 X98.533 Y107.061 E3.00925
G1 X97.999 Y106.651 E3.03902
G1 X97.67 Y106.462 E3.0558
G1 X97.193 Y106.253 E3.07884
G1 X96.553 Y106.082 E3.10813
G1 X96.199 Y106.036 E3.12395
G1 X96.167 Y106.415 F12000
G1 F2400
G1 X96.148 Y106.412 E3.12479
G1 X95.677 Y106.402 E3.14562
G1 X95.075 Y106.482 E3.17252
G1 X94.752 Y106.569 E3.18728
G1 X94.314 Y106.74 E3.20811
G1 X93.787 Y107.045 E3.235
G1 X93.523 Y107.248 E3.24976
G1 X93.194 Y107.563 E3.26988
G1 X92.984 Y107.813 E3.28434
G1 X92.722 Y108.205 E3.30518
G1 X92.462 Y108.763 E3.33242
G1 X92.331 Y109.214 E3.3532
G1 X92.273 Y109.543 E3.36796
G1 X92.246 Y110.157 E3.39515
G1 X92.327 Y110.773 E3.42262
G1 X92.459 Y111.225 E3.44346
G1 X92.581 Y111.522 E3.45764
G1 X92.729 Y111.806 E3.47182
G1 X92.991 Y112.198 E3.49266
G1 X93.413 Y112.658 E3.52027
G1 X93.901 Y113.032 E3.54747
G1 X94.191 Y113.198 E3.56222
G1 X94.622 Y113.388 E3.58307
G1 X95.21 Y113.545 E3.60996
G1 X95.541 Y113.588 E3.62473
G1 X96.012 Y113.598 E3.64556
G1 X96.614 Y113.518 E3.67245
G1 X96.937 Y113.431 E3.68721
G1 X97.376 Y113.26 E3.70804
G1 X97.902 Y112.955 E3.73494
G1 X98.166 Y112.752 E3.74968
G1 X98.5 Y112.433 E3.77011
G1 X98.79 Y112.071 E3.79064
G1 X98.97 Y111.789 E3.8054
G1 X99.227 Y111.237 E3.83235
G1 X99.359 Y110.786 E3.85313
G1 X99.417 Y110.457 E3.86789
G1 X99.443 Y109.843 E3.89508
G1 X99.362 Y109.227 E3.92256
G1 X99.23 Y108.775 E3.94339
G1 X99.105 Y108.472 E3.95786
G1 X98.885 Y108.071 E3.97812
G1 X98.693 Y107.797 E3.99288
G1 X98.276 Y107.342 E4.0202
G1 X97.788 Y106.968 E4.04739
G1 X97.498 Y106.802 E4.06216
G1 X97.067 Y106.612 E4.083
G1 X96.479 Y106.455 E4.10989
G1 X96.227 Y106.422 E4.12116
G1 X96.12 Y106.791 F12000
;TYPE:External perimeter
G1 F2400
G1 X95.699 Y106.783 E4.13978
G1 X95.149 Y106.856 E4.1643
G1 X94.871 Y106.93 E4.17703
G1 X94.479 Y107.083 E4.19567
G1 X93.999 Y107.361 E4.22017
G1 X93.771 Y107.536 E4.2329
G1 X93.472 Y107.823 E4.25121
G1 X93.288 Y108.042 E4.26384
G1 X93.054 Y108.392 E4.28247
G1 X92.819 Y108.897 E4.30713
G1 X92.701 Y109.301 E4.32572
G1 X92.651 Y109.584 E4.33846
G1 X92.627 Y110.14 E4.36307
G1 X92.7 Y110.695 E4.3878
G1 X92.818 Y111.099 E4.40643
G1 X92.926 Y111.361 E4.41896
G1 X93.057 Y111.612 E4.43149
G1 X93.291 Y111.963 E4.45012
G1 X93.671 Y112.376 E4.47497
G1 X94.113 Y112.715 E4.49959
G1 X94.362 Y112.859 E4.51233
G1 X94.748 Y113.028 E4.53097
G1 X95.284 Y113.171 E4.55547
G1 X95.569 Y113.209 E4.56822
G1 X95.991 Y113.217 E4.58686
G1 X96.54 Y113.144 E4.61135
G1 X96.818 Y113.07 E4.62411
G1 X97.211 Y112.917 E4.64272
G1 X97.69 Y112.639 E4.66724
G1 X97.918 Y112.464 E4.67997
G1 X98.219 Y112.176 E4.69838
G1 X98.481 Y111.849 E4.7169
G1 X98.636 Y111.606 E4.72964
G1 X98.87 Y111.103 E4.7542
G1 X98.988 Y110.699 E4.77278
G1 X99.038 Y110.416 E4.78552
G1 X99.062 Y109.86 E4.81015
G1 X98.989 Y109.305 E4.83486
G1 X98.871 Y108.901 E4.85349
G1 X98.762 Y108.637 E4.86614
G1 X98.562 Y108.272 E4.88455
G1 X98.397 Y108.036 E4.89729
G1 X98.018 Y107.623 E4.92203
G1 X97.576 Y107.285 E4.94665
G1 X97.327 Y107.141 E4.9594
G1 X96.941 Y106.972 E4.97803
G1 X96.405 Y106.829 E5.00254
G1 X96.179 Y106.799 E5.01264
;WIPE_START
G1 X96.018 Y106.589 F12000
;WIPE_END
G92 E0
G1 E-2 F2400
G1 X125.825 Y106.879 F12000
G1 E0 F2400
;TYPE:Internal perimeter
G1 X125.322 Y107.958 E0.05263
G1 X125.107 Y108.696 E0.08663
G1 X125.002 Y109.294 E0.1135
G1 X124.96 Y110.257 E0.15611
G1 X125.09 Y111.244 E0.20011
G1 X125.305 Y111.983 E0.23417
G1 X125.526 Y112.515 E0.25965
G1 X125.858 Y113.121 E0.2902
G1 X100.824 Y113.121 E1.39733
G1 X100.973 Y112.888 E1.40954
G1 X101.367 Y112.042 E1.45081
G1 X101.582 Y111.304 E1.48481
G1 X101.687 Y110.706 E1.51167
G1 X101.729 Y109.743 E1.55429
G1 X101.599 Y108.756 E1.5983
G1 X101.384 Y108.017 E1.63234
G1 X101.164 Y107.485 E1.65783
G1 X100.831 Y106.879 E1.68838
G1 X125.765 Y106.879 E2.79109
G1 X126.577 Y106.499 F12000
G1 F2400
G1 X126.062 Y107.271 E2.8321
G1 X125.679 Y108.092 E2.8722
G1 X125.478 Y108.782 E2.904
G1 X125.38 Y109.336 E2.92884
G1 X125.341 Y110.24 E2.96888
G1 X125.463 Y111.165 E3.01014
G1 X125.664 Y111.857 E3.04199
G1 X125.869 Y112.35 E3.06563
G1 X126.189 Y112.934 E3.09506
G1 X126.586 Y113.501 E3.12565
G1 X100.078 Y113.501 E4.29795
G1 X100.337 Y113.179 E4.3162
G1 X100.639 Y112.705 E4.34106
G1 X101.01 Y111.908 E4.37994
G1 X101.211 Y111.218 E4.41174
G1 X101.309 Y110.664 E4.43658
G1 X101.348 Y109.76 E4.47662
G1 X101.227 Y108.835 E4.51788
G1 X101.025 Y108.144 E4.54973
G1 X100.82 Y107.65 E4.57337
G1 X100.5 Y107.066 E4.6028
G1 X100.104 Y106.499 E4.6334
G1 X126.517 Y106.499 E5.80155
G1 X127.504 Y106.12 F12000
G1 F2400
G1 X127.083 Y106.522 E5.82731
G1 X126.766 Y106.9 E5.84911
G1 X126.394 Y107.457 E5.87876
G1 X126.036 Y108.226 E5.91627
G1 X125.848 Y108.869 E5.94588
G1 X125.759 Y109.377 E5.9687
G1 X125.722 Y110.224 E6.00617
G1 X125.835 Y111.087 E6.04467
G1 X126.023 Y111.73 E6.07432
G1 X126.212 Y112.186 E6.09613
G1 X126.512 Y112.733 E6.12372
G1 X126.808 Y113.156 E6.14657
G1 X127.473 Y113.88 E6.19004
G1 X99.185 Y113.88 E7.44106
G1 X99.623 Y113.461 E7.46784
G1 X100.027 Y112.957 E7.49645
G1 X100.305 Y112.521 E7.51928
G1 X100.654 Y111.774 E7.55578
G1 X100.841 Y111.131 E7.58537
G1 X100.93 Y110.623 E7.6082
G1 X100.967 Y109.776 E7.64568
G1 X100.854 Y108.913 E7.68417
G1 X100.666 Y108.27 E7.71382
G1 X100.477 Y107.814 E7.73562
G1 X100.177 Y107.267 E7.76322
G1 X99.881 Y106.844 E7.78608
G1 X99.217 Y106.12 E7.82954
G1 X127.444 Y106.12 E9.0779
G1 X128.378 Y105.965 F12000
G1 F2400
G1 X128.152 Y106.095 E9.08944
G1 X127.779 Y106.382 E9.11024
G1 X127.361 Y106.782 E9.13584
G1 X127.071 Y107.128 E9.1558
G1 X126.726 Y107.644 E9.18325
G1 X126.392 Y108.361 E9.2182
G1 X126.219 Y108.955 E9.24559
G1 X126.137 Y109.419 E9.26641
G1 X126.103 Y110.207 E9.3013
G1 X126.208 Y111.008 E9.33705
G1 X126.382 Y111.604 E9.36449
G1 X126.555 Y112.021 E9.38446
G1 X126.835 Y112.532 E9.41023
G1 X127.105 Y112.918 E9.43106
G1 X127.641 Y113.502 E9.4661
G1 X128.362 Y114.054 E9.50627
G1 X128.292 Y114.26 E9.5159
G1 X98.372 Y114.26 E10.83912
G1 X98.312 Y114.035 E10.84943
G1 X98.537 Y113.905 E10.86097
G1 X98.91 Y113.618 E10.88176
G1 X99.342 Y113.204 E10.90821
G1 X99.718 Y112.736 E10.9348
G1 X99.971 Y112.338 E10.95562
G1 X100.297 Y111.639 E10.98972
G1 X100.47 Y111.045 E11.01712
G1 X100.552 Y110.581 E11.03792
G1 X100.586 Y109.793 E11.07283
G1 X100.481 Y108.992 E11.10857
G1 X100.307 Y108.396 E11.13602
G1 X100.134 Y107.979 E11.15599
G1 X99.854 Y107.468 E11.18174
G1 X99.584 Y107.082 E11.20259
G1 X99.048 Y106.498 E11.23763
G1 X98.327 Y105.946 E11.27779
G1 X98.397 Y105.74 E11.28742
G1 X128.317 Y105.74 E12.61065
G1 X128.362 Y105.907 E12.6183
G92 E0
G1 E-2
G1 X130.618 Y105.644 F12000
G1 E0 F2400
G1 X129.925 Y105.736 E0.03092
G1 X129.515 Y105.846 E0.04971
G1 X128.983 Y106.053 E0.07496
G1 X128.364 Y106.412 E0.10661
G1 X128.027 Y106.671 E0.1254
G1 X127.639 Y107.043 E0.14917
G1 X127.375 Y107.357 E0.1673
G1 X127.058 Y107.831 E0.19255
G1 X126.749 Y108.495 E0.22493
G1 X126.589 Y109.042 E0.25011
G1 X126.516 Y109.46 E0.26891
G1 X126.484 Y110.19 E0.30124
G1 X126.581 Y110.93 E0.33423
G1 X126.741 Y111.478 E0.35947
G1 X126.898 Y111.857 E0.3776
G1 X127.158 Y112.331 E0.40153
G1 X127.402 Y112.679 E0.42035
G1 X127.898 Y113.221 E0.45281
G1 X128.479 Y113.665 E0.48517
G1 X128.847 Y113.878 E0.50396
G1 X129.37 Y114.107 E0.5292
G1 X130.062 Y114.292 E0.56088
G1 X130.555 Y114.356 E0.58288
G1 X130.537 Y114.64 E0.59548
G1 X96.089 Y114.64 E2.11893
G1 X96.071 Y114.356 E2.13152
G1 X96.764 Y114.264 E2.16243
G1 X97.174 Y114.154 E2.18124
G1 X97.706 Y113.947 E2.20646
G1 X98.326 Y113.588 E2.23813
G1 X98.662 Y113.329 E2.25692
G1 X99.061 Y112.947 E2.28134
G1 X99.409 Y112.514 E2.30592
G1 X99.637 Y112.155 E2.32473
G1 X99.94 Y111.505 E2.35643
G1 X100.1 Y110.958 E2.38163
G1 X100.173 Y110.54 E2.40043
G1 X100.205 Y109.81 E2.43275
G1 X100.108 Y109.07 E2.46574
G1 X99.948 Y108.522 E2.49098
G1 X99.791 Y108.143 E2.50912
G1 X99.531 Y107.669 E2.53305
G1 X99.287 Y107.321 E2.55185
G1 X98.791 Y106.779 E2.58433
G1 X98.21 Y106.335 E2.61668
G1 X97.842 Y106.122 E2.63548
G1 X97.319 Y105.893 E2.66072
G1 X96.627 Y105.708 E2.69239
G1 X96.134 Y105.644 E2.71439
G1 X96.152 Y105.36 E2.727
G1 X130.6 Y105.36 E4.25044
G1 X130.614 Y105.584 E4.26038
G92 E0
G1 E-2
G1 X134.464 Y108.346 F12000
G1 E0 F2400
G1 X134.452 Y108.318 E0.00138
G1 X134.287 Y108 E0.01721
G1 X133.998 Y107.567 E0.04025
G1 X133.533 Y107.061 E0.07063
G1 X132.99 Y106.645 E0.10087
G1 X132.533 Y106.395 E0.12391
G1 X132.183 Y106.25 E0.14069
G1 X131.553 Y106.082 E0.1695
G1 X131.177 Y106.033 E0.18629
G1 X130.656 Y106.022 E0.20932
G1 X130 Y106.109 E0.2386
G1 X129.634 Y106.207 E0.25538
G1 X129.148 Y106.397 E0.27841
G1 X128.575 Y106.728 E0.30769
G1 X128.275 Y106.959 E0.32446
G1 X127.916 Y107.303 E0.34641
G1 X127.68 Y107.585 E0.3627
G1 X127.39 Y108.018 E0.38575
G1 X127.105 Y108.629 E0.41555
G1 X126.96 Y109.128 E0.43854
G1 X126.894 Y109.502 E0.45531
G1 X126.865 Y110.174 E0.48508
G1 X126.954 Y110.852 E0.51531
G1 X127.1 Y111.352 E0.53834
G1 X127.241 Y111.692 E0.55465
G1 X127.481 Y112.13 E0.57674
G1 X127.699 Y112.441 E0.59353
