; generated by SuperSlicer 2.5.60.0 on 2025-09-05 at 12:32:10 UTC

; 

; external perimeters extrusion width = 0.44mm
; perimeters extrusion width = 0.44mm
; infill extrusion width = 0.44mm
; solid infill extrusion width = 0.44mm
; top infill extrusion width = 0.44mm
; first layer extrusion width = 0.44mm

; object:{"name":"asdfasdf","id":"asdfasdf.stl id:0 copy 0","object_center":[110.000000,110.000000,0.000000],"boundingbox_center":[110.000000,110.000000,3.750000],"boundingbox_size":[28.000000,28.000000,7.500000]}
EXCLUDE_OBJECT_DEFINE NAME=asdfasdf_stl_id_0_copy_0 CENTER=110.000000,110.000000 POLYGON=[[96.00,110.00],[96.01,109.39],[96.05,108.78],[96.12,108.17],[96.21,107.57],[96.33,106.97],[96.48,106.38],[96.65,105.79],[96.84,105.21],[97.07,104.64],[97.31,104.08],[97.58,103.54],[97.88,103.00],[98.19,102.48],[98.53,101.97],[98.89,101.48],[99.28,101.00],[99.68,100.54],[100.10,100.10],[100.54,99.68],[101.00,99.28],[101.48,98.89],[101.97,98.53],[102.48,98.19],[103.00,97.88],[103.54,97.58],[104.08,97.31],[104.64,97.07],[105.21,96.84],[105.79,96.65],[106.38,96.48],[106.97,96.33],[107.57,96.21],[108.17,96.12],[108.78,96.05],[109.39,96.01],[110.00,96.00],[110.61,96.01],[111.22,96.05],[111.83,96.12],[112.43,96.21],[113.03,96.33],[113.62,96.48],[114.21,96.65],[114.79,96.84],[115.36,97.07],[115.92,97.31],[116.46,97.58],[117.00,97.88],[117.52,98.19],[118.03,98.53],[118.52,98.89],[119.00,99.28],[119.46,99.68],[119.90,100.10],[120.32,100.54],[120.72,101.00],[121.11,101.48],[121.47,101.97],[121.81,102.48],[122.12,103.00],[122.42,103.54],[122.69,104.08],[122.93,104.64],[123.16,105.21],[123.35,105.79],[123.52,106.38],[123.67,106.97],[123.79,107.57],[123.88,108.17],[123.95,108.78],[123.99,109.39],[124.00,110.00],[123.99,110.61],[123.95,111.22],[123.88,111.83],[123.79,112.43],[123.67,113.03],[123.52,113.62],[123.35,114.21],[123.16,114.79],[122.93,115.36],[122.69,115.92],[122.42,116.46],[122.12,117.00],[121.81,117.52],[121.47,118.03],[121.11,118.52],[120.72,119.00],[120.32,119.46],[119.90,119.90],[119.46,120.32],[119.00,120.72],[118.52,121.11],[118.03,121.47],[117.52,121.81],[117.00,122.12],[116.46,122.42],[115.92,122.69],[115.36,122.93],[114.79,123.16],[114.21,123.35],[113.62,123.52],[113.03,123.67],[112.43,123.79],[111.83,123.88],[111.22,123.95],[110.61,123.99],[110.00,124.00],[109.39,123.99],[108.78,123.95],[108.17,123.88],[107.57,123.79],[106.97,123.67],[106.38,123.52],[105.79,123.35],[105.21,123.16],[104.64,122.93],[104.08,122.69],[103.54,122.42],[103.00,122.12],[102.48,121.81],[101.97,121.47],[101.48,121.11],[101.00,120.72],[100.54,120.32],[100.10,119.90],[99.68,119.46],[99.28,119.00],[98.89,118.52],[98.53,118.03],[98.19,117.52],[97.88,117.00],[97.58,116.46],[97.31,115.92],[97.07,115.36],[96.84,114.79],[96.65,114.21],[96.48,113.62],[96.33,113.03],[96.21,112.43],[96.12,111.83],[96.05,111.22],[96.01,110.61],[96.00,110.00]]
; Total objects to print: 1
; plater:{"center":[110.000000,110.000000,0.000000],"boundingbox_center":[110.000000,110.000000,3.750000],"boundingbox_size":[28.000000,28.000000,7.500000]}

M107
;TYPE:Custom
M140 S90 ; set bed temp
M104 S245 ; set extruder temp
G28 ; home all axes
G1 Z5 F5000 ; lift nozzle
G1 X0 Y0 F3000 ; move to X0, Y0
M190 S90 ; wait for bed temp
M109 S245 ; wait for extruder temp
G21 ; set units to millimeters
G90 ; use absolute coordinates
M82 ; use absolute distances for extrusion
G92 E0
; Filament gcode
;LAYER_CHANGE
;Z:0.28
;HEIGHT:0.28
G1 Z0.28 F12000
G1 E-2 F2400
G1 X92.569 Y91.35 F12000
G1 E0 F2400
;TYPE:Skirt
;WIDTH:0.4
G1 X90.607 Y93.399 E0.11226
G1 X89.234 Y95.152 E0.20039
G1 X87.767 Y97.454 E0.30839
G1 X86.759 Y99.44 E0.39652
G1 X85.73 Y102.084 E0.50877
G1 X85.133 Y104.229 E0.5969
G1 X84.724 Y106.419 E0.68502
G1 X84.486 Y109.138 E0.79302
G1 X84.548 Y111.974 E0.90529
G1 X84.817 Y114.185 E0.99341
G1 X85.408 Y116.85 E1.10141
G1 X86.099 Y118.967 E1.18954
G1 X87.241 Y121.564 E1.3018
G1 X88.336 Y123.503 E1.38991
G1 X89.595 Y125.34 E1.47805
G1 X91.35 Y127.431 E1.58604
G1 X93.399 Y129.393 E1.69831
G1 X95.152 Y130.766 E1.78643
G1 X97.454 Y132.233 E1.89443
G1 X99.44 Y133.241 E1.98256
G1 X102.084 Y134.27 E2.09482
G1 X104.229 Y134.867 E2.18294
G1 X106.419 Y135.276 E2.27107
G1 X109.138 Y135.514 E2.37906
G1 X111.974 Y135.452 E2.49133
G1 X114.185 Y135.183 E2.57945
G1 X116.85 Y134.592 E2.68746
G1 X118.967 Y133.901 E2.77558
G1 X121.564 Y132.759 E2.88784
G1 X123.503 Y131.664 E2.97596
G1 X125.34 Y130.405 E3.06409
G1 X127.431 Y128.65 E3.17209
G1 X129.393 Y126.601 E3.28435
G1 X130.766 Y124.848 E3.37247
G1 X132.233 Y122.546 E3.48048
G1 X133.241 Y120.56 E3.5686
G1 X134.27 Y117.916 E3.68086
G1 X134.867 Y115.771 E3.76899
G1 X135.276 Y113.581 E3.85711
G1 X135.514 Y110.862 E3.96511
G1 X135.452 Y108.026 E4.07737
G1 X135.183 Y105.815 E4.1655
G1 X134.592 Y103.15 E4.2735
G1 X133.901 Y101.033 E4.36162
G1 X132.759 Y98.436 E4.47388
G1 X131.664 Y96.497 E4.56201
G1 X130.405 Y94.66 E4.65013
G1 X128.65 Y92.569 E4.75813
G1 X126.601 Y90.607 E4.87039
G1 X124.848 Y89.234 E4.95852
G1 X122.546 Y87.767 E5.06652
G1 X120.56 Y86.759 E5.15465
G1 X117.916 Y85.73 E5.2669
G1 X115.771 Y85.133 E5.35503
G1 X113.581 Y84.724 E5.44315
G1 X110.862 Y84.486 E5.55116
G1 X108.026 Y84.548 E5.66341
G1 X105.815 Y84.817 E5.75154
G1 X103.15 Y85.408 E5.85955
G1 X101.033 Y86.099 E5.94766
G1 X98.436 Y87.241 E6.05993
G1 X96.497 Y88.336 E6.14805
G1 X94.66 Y89.595 E6.23617
G1 X92.615 Y91.311 E6.3418
G1 X92.804 Y91.595 F12000
G1 F2400
G1 X90.863 Y93.623 E6.4529
G1 X89.508 Y95.353 E6.53984
G1 X88.065 Y97.618 E6.64608
G1 X87.07 Y99.577 E6.73303
G1 X86.052 Y102.193 E6.84413
G1 X85.463 Y104.31 E6.93107
G1 X85.06 Y106.47 E7.01802
G1 X84.826 Y109.145 E7.12427
G1 X84.888 Y111.952 E7.23535
G1 X85.153 Y114.133 E7.3223
G1 X85.608 Y116.283 E7.40926
G1 X86.415 Y118.844 E7.51549
G1 X87.546 Y121.414 E7.62659
G1 X88.626 Y123.327 E7.71354
G1 X89.869 Y125.139 E7.80048
G1 X91.595 Y127.196 E7.90673
G1 X93.623 Y129.137 E8.01781
G1 X95.353 Y130.492 E8.10477
G1 X97.618 Y131.935 E8.21101
G1 X99.577 Y132.93 E8.29796
G1 X102.193 Y133.948 E8.40905
G1 X104.31 Y134.537 E8.496
G1 X106.47 Y134.94 E8.58295
G1 X109.145 Y135.174 E8.68919
G1 X111.952 Y135.112 E8.80028
G1 X114.133 Y134.847 E8.88723
G1 X116.283 Y134.392 E8.97418
G1 X118.844 Y133.585 E9.08042
G1 X121.414 Y132.454 E9.19152
G1 X123.327 Y131.374 E9.27846
G1 X125.139 Y130.131 E9.36541
G1 X127.196 Y128.405 E9.47165
G1 X129.137 Y126.377 E9.58275
G1 X130.492 Y124.647 E9.66969
G1 X131.935 Y122.382 E9.77594
G1 X132.93 Y120.423 E9.86288
G1 X133.948 Y117.807 E9.97398
G1 X134.537 Y115.69 E10.06093
G1 X135.003 Y113.046 E10.16717
G1 X135.174 Y110.855 E10.25411
G1 X135.112 Y108.048 E10.36521
G1 X134.847 Y105.867 E10.45216
G1 X134.266 Y103.245 E10.5584
G1 X133.585 Y101.156 E10.64535
G1 X132.454 Y98.586 E10.75644
G1 X131.374 Y96.673 E10.84339
G1 X130.131 Y94.861 E10.93033
G1 X128.405 Y92.804 E11.03658
G1 X126.377 Y90.863 E11.14767
G1 X124.647 Y89.508 E11.23462
G1 X122.382 Y88.065 E11.34087
G1 X120.423 Y87.07 E11.42781
G1 X117.807 Y86.052 E11.53891
G1 X115.69 Y85.463 E11.62585
G1 X113.046 Y84.997 E11.73209
G1 X110.855 Y84.826 E11.81905
G1 X108.048 Y84.888 E11.93013
G1 X105.867 Y85.153 E12.01708
G1 X103.245 Y85.734 E12.12333
G1 X101.156 Y86.415 E12.21028
G1 X98.586 Y87.546 E12.32137
G1 X96.673 Y88.626 E12.40831
G1 X94.861 Y89.869 E12.49526
G1 X92.85 Y91.556 E12.59914
G1 X93.039 Y91.841 F12000
G1 F2400
G1 X91.118 Y93.847 E12.70905
G1 X89.782 Y95.554 E12.79482
G1 X88.363 Y97.781 E12.89931
G1 X87.381 Y99.714 E12.98509
G1 X86.374 Y102.303 E13.095
G1 X85.793 Y104.391 E13.18078
G1 X85.396 Y106.522 E13.26655
G1 X85.166 Y109.153 E13.37104
G1 X85.227 Y111.93 E13.48096
G1 X85.489 Y114.082 E13.56673
G1 X86.061 Y116.66 E13.67121
G1 X86.732 Y118.721 E13.757
G1 X87.851 Y121.263 E13.8669
G1 X88.917 Y123.151 E13.95269
G1 X90.143 Y124.938 E14.03845
G1 X91.841 Y126.961 E14.14294
G1 X93.847 Y128.882 E14.25286
G1 X95.554 Y130.218 E14.33864
G1 X97.781 Y131.637 E14.44312
G1 X99.714 Y132.619 E14.52889
G1 X102.303 Y133.626 E14.63882
G1 X104.391 Y134.207 E14.72459
G1 X106.522 Y134.604 E14.81036
G1 X109.153 Y134.834 E14.91485
G1 X111.93 Y134.773 E15.02476
G1 X114.082 Y134.511 E15.11054
G1 X116.66 Y133.939 E15.21503
G1 X118.721 Y133.268 E15.3008
G1 X121.263 Y132.149 E15.41071
G1 X123.151 Y131.083 E15.4965
G1 X124.938 Y129.857 E15.58226
G1 X126.961 Y128.159 E15.68676
G1 X128.882 Y126.153 E15.79666
G1 X130.218 Y124.446 E15.88245
G1 X131.637 Y122.219 E15.98693
G1 X132.619 Y120.286 E16.0727
G1 X133.626 Y117.697 E16.18263
G1 X134.207 Y115.609 E16.26839
G1 X134.604 Y113.478 E16.35418
G1 X134.834 Y110.847 E16.45865
G1 X134.773 Y108.07 E16.56858
G1 X134.511 Y105.918 E16.65435
G1 X133.939 Y103.34 E16.75883
G1 X133.268 Y101.279 E16.84461
G1 X132.149 Y98.737 E16.95453
G1 X131.083 Y96.849 E17.0403
G1 X129.857 Y95.062 E17.12608
G1 X128.159 Y93.039 E17.23056
G1 X126.153 Y91.118 E17.34048
G1 X124.446 Y89.782 E17.42625
G1 X122.219 Y88.363 E17.53074
G1 X120.286 Y87.381 E17.61652
G1 X117.697 Y86.374 E17.72643
G1 X115.609 Y85.793 E17.81221
G1 X113.478 Y85.396 E17.89798
G1 X110.847 Y85.166 E18.00246
G1 X108.07 Y85.227 E18.11239
G1 X105.918 Y85.489 E18.19816
G1 X103.34 Y86.061 E18.30264
G1 X101.279 Y86.732 E18.38842
G1 X98.737 Y87.851 E18.49834
G1 X96.849 Y88.917 E18.58411
G1 X95.062 Y90.143 E18.66989
G1 X93.085 Y91.802 E18.77199
G1 X93.274 Y92.086 F12000
G1 F2400
G1 X91.374 Y94.071 E18.88074
G1 X90.056 Y95.755 E18.96534
G1 X88.661 Y97.945 E19.06807
G1 X87.692 Y99.851 E19.15267
G1 X86.696 Y102.412 E19.26142
G1 X86.123 Y104.472 E19.34602
G1 X85.732 Y106.574 E19.43061
G1 X85.506 Y109.16 E19.53335
G1 X85.566 Y111.908 E19.64208
G1 X85.825 Y114.03 E19.72669
G1 X86.387 Y116.564 E19.82942
G1 X87.049 Y118.597 E19.91402
G1 X88.156 Y121.113 E20.02276
G1 X89.208 Y122.974 E20.10736
G1 X90.417 Y124.737 E20.19196
G1 X92.086 Y126.726 E20.29469
G1 X94.071 Y128.626 E20.40343
G1 X95.755 Y129.944 E20.48804
G1 X97.945 Y131.339 E20.59076
G1 X99.851 Y132.308 E20.67537
G1 X102.412 Y133.304 E20.7841
G1 X104.472 Y133.877 E20.86871
G1 X106.574 Y134.268 E20.95331
G1 X109.16 Y134.494 E21.05604
G1 X111.908 Y134.434 E21.16478
G1 X114.03 Y134.175 E21.24938
G1 X116.564 Y133.613 E21.35211
G1 X118.597 Y132.951 E21.43671
G1 X121.113 Y131.844 E21.54545
G1 X122.974 Y130.792 E21.63006
G1 X124.737 Y129.583 E21.71465
G1 X126.726 Y127.914 E21.81738
G1 X128.626 Y125.929 E21.92613
G1 X129.944 Y124.245 E22.01073
G1 X131.339 Y122.055 E22.11345
G1 X132.308 Y120.149 E22.19806
G1 X133.304 Y117.588 E22.3068
G1 X133.877 Y115.528 E22.3914
G1 X134.268 Y113.426 E22.476
G1 X134.494 Y110.84 E22.57873
G1 X134.434 Y108.092 E22.68747
G1 X134.175 Y105.97 E22.77208
G1 X133.732 Y103.878 E22.85667
G1 X132.951 Y101.403 E22.95941
G1 X131.844 Y98.887 E23.06814
G1 X130.792 Y97.026 E23.15275
G1 X129.583 Y95.263 E23.23735
G1 X127.914 Y93.274 E23.34007
G1 X125.929 Y91.374 E23.44882
G1 X124.245 Y90.056 E23.53342
G1 X122.055 Y88.661 E23.63615
G1 X120.149 Y87.692 E23.72075
G1 X117.588 Y86.696 E23.82949
G1 X115.528 Y86.123 E23.91409
G1 X113.426 Y85.732 E23.9987
G1 X110.84 Y85.506 E24.10142
G1 X108.092 Y85.566 E24.21016
G1 X105.97 Y85.825 E24.29477
G1 X103.878 Y86.268 E24.37937
G1 X101.403 Y87.049 E24.4821
G1 X98.887 Y88.156 E24.59083
G1 X97.026 Y89.208 E24.67544
G1 X95.263 Y90.417 E24.76005
G1 X93.32 Y92.048 E24.86039
G1 X93.509 Y92.332 F12000
G1 F2400
G1 X91.629 Y94.295 E24.96796
G1 X90.33 Y95.956 E25.05139
G1 X88.959 Y98.108 E25.15236
G1 X88.003 Y99.987 E25.23579
G1 X87.018 Y102.521 E25.34336
G1 X86.453 Y104.553 E25.42678
G1 X86.068 Y106.626 E25.51022
G1 X85.846 Y109.167 E25.61118
G1 X85.905 Y111.885 E25.71875
G1 X86.161 Y113.978 E25.80218
G1 X86.599 Y116.041 E25.88561
G1 X87.366 Y118.474 E25.98658
G1 X88.461 Y120.963 E26.09414
G1 X89.498 Y122.798 E26.17758
G1 X90.692 Y124.536 E26.261
G1 X92.332 Y126.491 E26.36197
G1 X94.295 Y128.371 E26.46953
G1 X95.956 Y129.67 E26.55297
G1 X98.108 Y131.041 E26.65394
G1 X99.987 Y131.997 E26.73736
G1 X102.521 Y132.982 E26.84493
G1 X104.553 Y133.547 E26.92837
G1 X106.626 Y133.932 E27.01179
G1 X109.167 Y134.154 E27.11275
G1 X111.885 Y134.095 E27.22033
G1 X113.978 Y133.839 E27.30376
G1 X116.041 Y133.401 E27.38718
G1 X118.474 Y132.634 E27.48815
G1 X120.963 Y131.539 E27.59572
G1 X122.798 Y130.502 E27.67915
G1 X124.536 Y129.308 E27.76258
G1 X126.491 Y127.668 E27.86355
G1 X128.371 Y125.705 E27.97111
G1 X129.67 Y124.044 E28.05454
G1 X131.041 Y121.892 E28.15551
G1 X131.997 Y120.013 E28.23894
G1 X132.982 Y117.479 E28.34651
G1 X133.547 Y115.447 E28.42994
G1 X133.99 Y112.935 E28.5309
G1 X134.154 Y110.833 E28.61434
G1 X134.095 Y108.115 E28.7219
G1 X133.839 Y106.022 E28.80533
G1 X133.401 Y103.959 E28.88876
G1 X132.634 Y101.526 E28.98973
G1 X131.539 Y99.037 E29.09729
G1 X130.502 Y97.202 E29.18073
G1 X129.308 Y95.464 E29.26415
G1 X127.668 Y93.509 E29.36512
G1 X125.705 Y91.629 E29.47269
G1 X124.044 Y90.33 E29.55612
G1 X121.892 Y88.959 E29.65708
G1 X120.013 Y88.003 E29.74052
G1 X117.479 Y87.018 E29.84808
G1 X115.447 Y86.453 E29.93152
G1 X112.935 Y86.01 E30.03248
G1 X110.833 Y85.846 E30.11591
G1 X108.115 Y85.905 E30.22347
G1 X106.022 Y86.161 E30.30691
G1 X103.959 Y86.599 E30.39034
G1 X101.526 Y87.366 E30.4913
G1 X99.037 Y88.461 E30.59887
G1 X97.202 Y89.498 E30.6823
G1 X95.464 Y90.692 E30.76573
G1 X93.555 Y92.293 E30.86432
G92 E0
G1 E-2
; printing object asdfasdf.stl id:0 copy 0
EXCLUDE_OBJECT_START NAME=asdfasdf_stl_id_0_copy_0
G1 X100.947 Y100.121 F12000
G1 E0 F2400
;TYPE:Internal perimeter
;WIDTH:0.44
G1 X101.387 Y99.735 E0.02585
G1 X101.843 Y99.369 E0.05172
G1 X102.314 Y99.023 E0.07756
G1 X102.8 Y98.699 E0.10342
G1 X103.3 Y98.395 E0.12928
G1 X103.813 Y98.114 E0.15514
G1 X104.337 Y97.856 E0.18099
G1 X104.872 Y97.62 E0.20684
G1 X105.417 Y97.408 E0.23271
G1 X105.971 Y97.22 E0.25856
G1 X106.532 Y97.057 E0.28441
G1 X107.1 Y96.918 E0.31027
G1 X107.673 Y96.804 E0.33613
G1 X108.251 Y96.715 E0.36198
G1 X108.832 Y96.651 E0.38784
G1 X109.416 Y96.613 E0.41369
G1 X110 Y96.6 E0.43955
G1 X110.584 Y96.613 E0.46541
G1 X111.168 Y96.651 E0.49126
G1 X111.749 Y96.715 E0.51712
G1 X112.327 Y96.804 E0.54297
G1 X112.9 Y96.918 E0.56883
G1 X113.468 Y97.057 E0.59469
G1 X114.029 Y97.22 E0.62054
G1 X114.583 Y97.408 E0.6464
G1 X115.128 Y97.62 E0.67225
G1 X115.663 Y97.856 E0.69811
G1 X116.187 Y98.114 E0.72396
G1 X116.7 Y98.395 E0.74983
G1 X117.2 Y98.699 E0.77567
G1 X117.686 Y99.023 E0.80154
G1 X118.157 Y99.369 E0.82739
G1 X118.613 Y99.735 E0.85324
G1 X119.053 Y100.121 E0.8791
G1 X119.475 Y100.525 E0.90496
G1 X119.879 Y100.947 E0.93082
G1 X120.265 Y101.387 E0.95666
G1 X120.631 Y101.843 E0.98253
G1 X120.977 Y102.314 E1.00838
G1 X121.301 Y102.8 E1.03424
G1 X121.605 Y103.3 E1.06009
G1 X121.886 Y103.813 E1.08595
G1 X122.144 Y104.337 E1.1118
G1 X122.38 Y104.872 E1.13766
G1 X122.592 Y105.417 E1.16352
G1 X122.78 Y105.971 E1.18937
G1 X122.943 Y106.532 E1.21523
G1 X123.082 Y107.1 E1.24109
G1 X123.196 Y107.673 E1.26694
G1 X123.285 Y108.251 E1.29279
G1 X123.349 Y108.832 E1.31866
G1 X123.387 Y109.416 E1.34451
G1 X123.4 Y110 E1.37036
G1 X123.387 Y110.584 E1.39622
G1 X123.349 Y111.168 E1.42208
G1 X123.285 Y111.749 E1.44793
G1 X123.196 Y112.327 E1.47379
G1 X123.082 Y112.9 E1.49964
G1 X122.943 Y113.468 E1.5255
G1 X122.78 Y114.029 E1.55136
G1 X122.592 Y114.583 E1.57721
G1 X122.38 Y115.128 E1.60307
G1 X122.144 Y115.663 E1.62892
G1 X121.886 Y116.187 E1.65478
G1 X121.605 Y116.7 E1.68064
G1 X121.301 Y117.2 E1.70649
G1 X120.977 Y117.686 E1.73235
G1 X120.631 Y118.157 E1.7582
G1 X120.265 Y118.613 E1.78406
G1 X119.879 Y119.053 E1.80992
G1 X119.475 Y119.475 E1.83577
G1 X119.053 Y119.879 E1.86163
G1 X118.613 Y120.265 E1.88748
G1 X118.157 Y120.631 E1.91334
G1 X117.686 Y120.977 E1.9392
G1 X117.2 Y121.301 E1.96505
G1 X116.7 Y121.605 E1.9909
G1 X116.187 Y121.886 E2.01677
G1 X115.663 Y122.144 E2.04262
G1 X115.128 Y122.38 E2.06847
G1 X114.583 Y122.592 E2.09433
G1 X114.029 Y122.78 E2.12019
G1 X113.468 Y122.943 E2.14604
G1 X112.9 Y123.082 E2.1719
G1 X112.327 Y123.196 E2.19776
G1 X111.749 Y123.285 E2.22361
G1 X111.168 Y123.349 E2.24946
G1 X110.584 Y123.387 E2.27533
G1 X110 Y123.4 E2.30118
G1 X109.416 Y123.387 E2.32703
G1 X108.832 Y123.349 E2.35289
G1 X108.251 Y123.285 E2.37875
